X:1
T:Title
L:1/8
M:4/4
I:linebreak $
K:C
V:1 treble nm="Voice"
V:1
"G" dedc BGAG | Bddd dedc |1[M:6/4] BGAG BGGG G2 A/c/e :|2 BGAG BGGG G2 Ac |:[M:4/4]"G" BGAG BGBG | %5
"D" AGAc"G" BGAG |1 BGGG G2 Ac :|2 BGGG G2 A/c/e |] %8
